X:1
T: Hon Mr F Gray's Strathspey
C:
R:Strathspey
Q: 128
K:Bb
M:4/4
L:1/16
|:AB|cF3 A3F E2G2 G2AB|cF3 AF3 c3F B3d|c2F2 A2F2 E2G2 G2AB|c2F2 A3G F4 F2AB|
cF3 A3F E2G2 G2AB|cF3 AF3 c3F B3d|c2F2 A2F2 E2G2 G2AB|c2F2 A3G F4 F2c2|
f3c af3 eg3 g3a|fc3 af3 df3 cA3|Bg3 Af3 G3A B3d|cF3 A3G F4 F2c2|
f3c af3 eg3 g3a|fc3 af3 df3 cA3|Bg3 Af3 G3A B3d|cf3 g3e f4 f2:|
